X: 299
T:Sprig of Shillelah
% Nottingham Music Database
S:KCC p21, via EF
M:6/8
K:G
P:A
D|"G"DGG GFG|"D7"AcB AGF|"G"Gdd "G7"dcB|"C"AcB "D7"AGF|"G"GAB "C"EFG|\
"D7"DEF "G"G2:|
P:B
G|"G"BGB dBd|"C"ece "D7"d2c|"G"BGB dBd|"C"ece "D7"d2c|"G"BBB BAG|
"D7"AcB AGF|"G"Gdd "G7"dcB|"C"AcB "D7"AGF|"G"GAB "C"EFG|"D7"DEF "G"G2:|<end>
<start>
